X: 09060
T: KATHY MILLER'S JIG
C: Bob McQuillen 19 Nov 92
B: Bob's Note Book 9 #60
%R: hornpipe, reel
Z: 2018 John Chambers <jc:trillian.mit.edu>
M: 6/8
L: 1/8
K: G
D2E \
| GBG FGA | GBd d2c | Bcd ded | cBc AFD |
| GBG FGA | GBd dBG | EFG AFD | G3 :|
|: B2c \
| ded dBG | FGA A2B | cde dBG | FGA DEF |
| GFG AFD | Bcd edc | BAG AGF | G3 :|
%%begintext align
%% East Alstead, NH, is an interesting
%% place. hey have a cat over there who thinks he's a piano player.
%% There's a real good fiddler in the town; and then there's a guy
%% who is just a celebrated block-print wood carver (but now I've got
%% to tell you, they're the same guy, Randy Miller!) And then, too, there's
%% Randy's wife, Kathy, who calls dances and works a lot with kids
%% and she's so nice to me whenever I see her that, well, You're looking
%% at it right now!  Love you lots, Kathy!
%%endtext

%%sep 1 1 500

%%sep 1 1 500

